!!!COM: Music21
!!!OTL: Jota de Outeiro
!!!OMV: pezas_jotas_jota-de-outeiro_jota-de-outeiro-partitura.musicxml
**kern
*I"Bagpipes
*I'Bag
*clefG^2
*k[]
*M3/4
=1
!LO:TX:a:t=Prestissimo
*MM220
!LO:TX:a:t=[quarter]=220
2r
4cc
=||
4ff
8ffL
8eeJ
8ffL
8ggJ
=
4ff
4ff
4cc
=
4ff
8ffL
8eeJ
8ffL
8ggJ
=
2ff
4gg
=
2aa-X
4ccc
=
4gg
4ee
4ff
=
2gg
4aa-X
=
[2.ff
=
4ff]
4r
4cc
=||
4ff
8ffL
8eeJ
8ffL
8ggJ
!!linebreak:original
=
4ff
4ff
4cc
=
4ff
8ffL
8eeJ
8ffL
8ggJ
=
2ff
4gg
=
2aa-X
4ccc
=
4gg
4ee
4ff
=
2gg
4aa-X
=
[2.ff
=
4ff]
8eeL
8ddJ
8ffL
8eeJ
!!linebreak:original
=||
8ccL
8eeJ
8ggL
8eeJ
8ffL
8ddJ
=
4cc
8eeL
8ddJ
8ffL
8eeJ
=
8ccL
8eeJ
8ffL
8eeJ
8ddL
8ccJ
=
4b
8ddL
8ccJ
8eeL
8ddJ
=
8bL
8ccJ
8ddL
8eeJ
8ffL
8eeJ
=
8ggL
8ffJ
8eeL
8ffJ
8eeL
8ddJ
=
8ggL
8ffJ
8eeL
8ffJ
8eeL
8ddJ
=
4cc
8eeL
8ddJ
8ffL
8eeJ
!!linebreak:original
=
8ccL
8eeJ
8ggL
8eeJ
8ffL
8ddJ
=
4cc
8eeL
8ddJ
8ffL
8eeJ
=
8ccL
8eeJ
8ffL
8eeJ
8ddL
8ccJ
=
4b
8ddL
8ccJ
8eeL
8ddJ
=
8bL
8ccJ
8ddL
8eeJ
8ffL
8eeJ
=
8ggL
8ffJ
8eeL
8ffJ
8eeL
8ddJ
=
8ggL
8ffJ
8eeL
8ffJ
8eeL
8ddJ
=
[2.cc
!!linebreak:original
=
4cc]
8eeL
8ddJ
8ffL
8eeJ
!!linebreak:original
=||
8ccL
8eeJ
8ggL
8eeJ
8ffL
8ddJ
=
4cc
8eeL
8ddJ
8ffL
8eeJ
=
8ccL
8eeJ
8ffL
8eeJ
8ddL
8ccJ
=
4b
8ddL
8ccJ
8eeL
8ddJ
=
8bL
8ccJ
8ddL
8eeJ
8ffL
8eeJ
=
8ggL
8ffJ
8eeL
8ffJ
8eeL
8ddJ
=
8ggL
8ffJ
8eeL
8ffJ
8eeL
8ddJ
=
4cc
8eeL
8ddJ
8ffL
8eeJ
!!linebreak:original
=
8ccL
8eeJ
8ggL
8eeJ
8ffL
8ddJ
=
4cc
8eeL
8ddJ
8ffL
8eeJ
=
8ccL
8eeJ
8ffL
8eeJ
8ddL
8ccJ
=
4b
8ddL
8ccJ
8eeL
8ddJ
=
8bL
8ccJ
8ddL
8eeJ
8ffL
8eeJ
=
8ggL
8ffJ
8eeL
8ffJ
8eeL
8ddJ
=
8ggL
8ffJ
8eeL
8ffJ
8eeL
8ddJ
=
[2.cc
!!linebreak:original
=
2.cc]
=||
*k[b-e-a-]
*E-:
[4cc
8ccL]
8ddJ
4ee-
=
4ff
4gg
4bb-
=
2aa-
4gg
=
4aa-
2gg
=
2ff
4ee-
=
4ff
4gg
4bb-
=
2aa-
[4gg
=
2.gg_
=
2.gg]
=
[4cc
8ccL]
8ddJ
4ee-
!!linebreak:original
=
4ff
4gg
4bb-
=
2aa-
4gg
=
4aa-
2gg
=
2ff
4ee-
=
4ff
2ee-
=
2dd
[4cc
=
2.cc_
=
2.cc]
=||
[4cc
8ccL]
8ddJ
4ee-
=
4ff
4gg
4bb-
=
2aa-
4gg
=
4aa-
2gg
=
2ff
4ee-
=
4ff
4gg
4bb-
!!linebreak:original
=
2aa-
[4gg
=
2.gg_
=
2.gg]
=
[4cc
8ccL]
8ddJ
4ee-
!!linebreak:original
=
4ff
4gg
4bb-
=
2aa-
4gg
=
4aa-
2gg
=
2ff
4ee-
=
4ff
2ee-
=||
2dd
[4cc
=
2.cc_
=
4cc]
4r
4cc
=||
2dd
[4cc
=
2.cc_
=
4cc]
2r
==
*-
